Origami/22x22/apps/minetest.svg

<svg width="22" height="22" version="1.1" viewBox="0 0 22 22" xmlns="http://www.w3.org/2000/svg">
 <path d="m10.952441 9.5007689c-0.331565 0.0074-0.639743 0.05578-1.0029408 0.256249l-8.1611068 4.5046851c-0.3634882 0.200636-0.7436916 0.579512-0.7855384 1.148437-0.041847 0.568926 0.38389 1.106423 0.7812922 1.325781l8.169599 4.509372c0.3974398 0.219377 0.7620538 0.261395 1.0938088 0.253906 0.331755-0.0075 0.639684-0.05574 1.002942-0.256249l8.161106-4.504686c0.363222-0.20049 0.743653-0.579288 0.785539-1.148437 0.04189-0.569148-0.384112-1.106544-0.781293-1.32578l-8.169599-4.5093721c-0.397261-0.219278-0.761616-0.261218-1.09296-0.253906z" style="opacity:.2"/>
 <path d="m10.952441 9.0007689c-0.331565 0.0074-0.639743 0.05578-1.0029408 0.256249l-8.1611068 4.5046851c-0.3634882 0.200636-0.7436916 0.579512-0.7855384 1.148437-0.041847 0.568926 0.38389 1.106423 0.7812922 1.325781l8.169599 4.509372c0.3974398 0.219377 0.7620538 0.261395 1.0938088 0.253906 0.331755-0.0075 0.639684-0.05574 1.002942-0.25625l8.161106-4.504685c0.363222-0.20049 0.743653-0.579288 0.785539-1.148437 0.04189-0.569148-0.384112-1.106544-0.781293-1.32578l-8.169599-4.5093721c-0.397261-0.219278-0.761616-0.261218-1.09296-0.253906z" style="fill:#197236"/>
 <path d="m10.952149 9.0009769c-0.331566 0.0074-0.639731 0.05539-1.0029298 0.255859l-8.161133 4.5048831c-0.3634882 0.200636-0.7433095 0.579512-0.7851563 1.148437-0.00797 0.108396 0.00578 0.214228 0.02832 0.318359 0.1002117-0.468145 0.4338007-0.788489 0.756836-0.966796l8.1611333-4.5048831c0.3631978-0.20047 0.6713638-0.248475 1.0029298-0.255859h9.99e-4c0.331344-0.0073 0.695513 0.03463 1.092774 0.253906l8.169921 4.5087891c0.321506 0.177465 0.657109 0.565313 0.752929 1.007812 0.01256-0.05864 0.02366-0.1183 0.02832-0.18164 0.04189-0.569149-0.384069-1.106936-0.78125-1.326172l-8.169943-4.5087891c-0.397262-0.219278-0.761431-0.261218-1.092774-0.253906z" style="fill:#ffffff;opacity:.1"/>
 <path d="m6.0000002 10.5h3.9999998v4l-1.9999998 1-2-1z" style="opacity:.2"/>
 <path d="M 6.0000002,9.9999999 H 10 V 14 l -1.9999998,1 -2,-1 z" style="fill:#a0722e"/>
 <path d="m8.0300842 1.5003659a1.2682434 1.2506621 0 0 0 -0.6641775 0.1668415l-3.7317295 2.1246325a1.2682434 1.2506621 0 0 0 -0.634177 1.083215v4.24954a1.2682434 1.2506621 0 0 0 0.634122 1.0831061l3.7317285 2.124742a1.2682434 1.2506621 0 0 0 1.2682435 0l3.7317288-2.124742a1.2682434 1.2506621 0 0 0 0.634177 -1.0832171v-4.249539a1.2682434 1.2506621 0 0 0 -0.634177 -1.0832155l-3.7317288-2.1246322a1.2682434 1.2506621 0 0 0 -0.604177 -0.1668406z" style="opacity:.2"/>
 <path d="m8.0300842 1.0003659a1.2682434 1.2506621 0 0 0 -0.6641775 0.1668415l-3.7317295 2.1246325a1.2682434 1.2506621 0 0 0 -0.634177 1.083215v4.24954a1.2682434 1.2506621 0 0 0 0.634122 1.083106l3.7317285 2.1247421a1.2682434 1.2506621 0 0 0 1.2682435 0l3.7317288-2.1247421a1.2682434 1.2506621 0 0 0 0.634177 -1.083217v-4.249539a1.2682434 1.2506621 0 0 0 -0.634177 -1.0832155l-3.7317288-2.1246322a1.2682434 1.2506621 0 0 0 -0.604177 -0.1668406z" style="fill:#74ba2f"/>
 <path d="m8.0302737 0.9999999a1.2682434 1.2506621 0 0 0 -0.6640625 0.1669922l-3.732422 2.1249998a1.2682434 1.2506621 0 0 0 -0.633789 1.083008v0.5a1.2682434 1.2506621 0 0 1 0.633789 -1.083008l3.732422-2.1249998a1.2682434 1.2506621 0 0 1 0.6640625 -0.1669922 1.2682434 1.2506621 0 0 1 0.6035155 0.1669922l3.7324218 2.1249998a1.2682434 1.2506621 0 0 1 0.633789 1.083008v-0.5a1.2682434 1.2506621 0 0 0 -0.633789 -1.083008l-3.7324218-2.1249998a1.2682434 1.2506621 0 0 0 -0.6035155 -0.1669922z" style="fill:#ffffff;opacity:.2"/>
</svg>

<svg xmlns="http://www.w3.org/2000/svg" width="22" height="22" version="1.1" viewBox="0 0 22 22">
 <path style="opacity:0.2" d="m 10.952441,9.5007689 c -0.331565,0.0074 -0.639743,0.05578 -1.0029408,0.256249 L 1.7883934,14.261703 c -0.3634882,0.200636 -0.7436916,0.579512 -0.7855384,1.148437 -0.041847,0.568926 0.38389,1.106423 0.7812922,1.325781 l 8.169599,4.509372 c 0.3974398,0.219377 0.7620538,0.261395 1.0938088,0.253906 0.331755,-0.0075 0.639684,-0.05574 1.002942,-0.256249 l 8.161106,-4.504686 c 0.363222,-0.20049 0.743653,-0.579288 0.785539,-1.148437 0.04189,-0.569148 -0.384112,-1.106544 -0.781293,-1.32578 L 12.04625,9.7546749 c -0.397261,-0.219278 -0.761616,-0.261218 -1.09296,-0.253906 z"/>
 <path style="fill:#197236" d="m 10.952441,9.0007689 c -0.331565,0.0074 -0.639743,0.05578 -1.0029408,0.256249 L 1.7883934,13.761703 c -0.3634882,0.200636 -0.7436916,0.579512 -0.7855384,1.148437 -0.041847,0.568926 0.38389,1.106423 0.7812922,1.325781 l 8.169599,4.509372 c 0.3974398,0.219377 0.7620538,0.261395 1.0938088,0.253906 0.331755,-0.0075 0.639684,-0.05574 1.002942,-0.25625 l 8.161106,-4.504685 c 0.363222,-0.20049 0.743653,-0.579288 0.785539,-1.148437 0.04189,-0.569148 -0.384112,-1.106544 -0.781293,-1.32578 L 12.04625,9.2546749 c -0.397261,-0.219278 -0.761616,-0.261218 -1.09296,-0.253906 z"/>
 <path style="opacity:0.1;fill:#ffffff" d="m 10.952149,9.0009769 c -0.331566,0.0074 -0.639731,0.05539 -1.0029298,0.255859 l -8.161133,4.5048831 c -0.3634882,0.200636 -0.7433095,0.579512 -0.7851563,1.148437 -0.00797,0.108396 0.00578,0.214228 0.02832,0.318359 0.1002117,-0.468145 0.4338007,-0.788489 0.756836,-0.966796 L 9.9492192,9.7568359 c 0.3631978,-0.20047 0.6713638,-0.248475 1.0029298,-0.255859 h 9.99e-4 c 0.331344,-0.0073 0.695513,0.03463 1.092774,0.253906 l 8.169921,4.5087891 c 0.321506,0.177465 0.657109,0.565313 0.752929,1.007812 0.01256,-0.05864 0.02366,-0.1183 0.02832,-0.18164 0.04189,-0.569149 -0.384069,-1.106936 -0.78125,-1.326172 L 12.045899,9.2548829 c -0.397262,-0.219278 -0.761431,-0.261218 -1.092774,-0.253906 z"/>
 <path style="opacity:0.2" d="M 6.0000002,10.5 H 10 v 4 l -1.9999998,1 -2,-1 z"/>
 <path style="fill:#a0722e" d="M 6.0000002,9.9999999 H 10 V 14 l -1.9999998,1 -2,-1 z"/>
 <path style="opacity:0.2" d="M 8.0300842,1.5003659 A 1.2682434,1.2506621 0 0 0 7.3659067,1.6672074 L 3.6341772,3.7918399 a 1.2682434,1.2506621 0 0 0 -0.634177,1.083215 v 4.24954 a 1.2682434,1.2506621 0 0 0 0.634122,1.0831061 l 3.7317285,2.124742 a 1.2682434,1.2506621 0 0 0 1.2682435,0 L 12.365823,10.207701 A 1.2682434,1.2506621 0 0 0 13,9.1244839 V 4.8749449 A 1.2682434,1.2506621 0 0 0 12.365823,3.7917294 L 8.6340942,1.6670972 A 1.2682434,1.2506621 0 0 0 8.0299172,1.5002566 Z"/>
 <path style="fill:#74ba2f" d="M 8.0300842,1.0003659 A 1.2682434,1.2506621 0 0 0 7.3659067,1.1672074 L 3.6341772,3.2918399 a 1.2682434,1.2506621 0 0 0 -0.634177,1.083215 v 4.24954 a 1.2682434,1.2506621 0 0 0 0.634122,1.083106 l 3.7317285,2.1247421 a 1.2682434,1.2506621 0 0 0 1.2682435,0 L 12.365823,9.7077009 A 1.2682434,1.2506621 0 0 0 13,8.6244839 V 4.3749449 A 1.2682434,1.2506621 0 0 0 12.365823,3.2917294 L 8.6340942,1.1670972 A 1.2682434,1.2506621 0 0 0 8.0299172,1.0002566 Z"/>
 <path style="opacity:0.2;fill:#ffffff" d="M 8.0302737,0.9999999 A 1.2682434,1.2506621 0 0 0 7.3662112,1.1669921 l -3.732422,2.1249998 a 1.2682434,1.2506621 0 0 0 -0.633789,1.083008 v 0.5 a 1.2682434,1.2506621 0 0 1 0.633789,-1.083008 L 7.3662112,1.6669921 A 1.2682434,1.2506621 0 0 1 8.0302737,1.4999999 1.2682434,1.2506621 0 0 1 8.6337892,1.6669921 L 12.366211,3.7919919 A 1.2682434,1.2506621 0 0 1 13,4.8749999 v -0.5 A 1.2682434,1.2506621 0 0 0 12.366211,3.2919919 L 8.6337892,1.1669921 A 1.2682434,1.2506621 0 0 0 8.0302737,0.9999999 Z"/>
</svg>
